24x24/actions/reply-all.svg

<svg xmlns="http://www.w3.org/2000/svg" width="24" height="24"><defs><style id="current-color-scheme" type="text/css"></style></defs><path style="fill:currentColor;color:#323a41" d="M6.5 1.5 0 6l6.5 4.5V9.115L2 6l4.5-3.115zm3.5 0V4h1c3 0 5 2 5 5 0 3.6-4 5-4 5s1.5-2.2 1.5-3.5c0-1.3-1.5-2.5-3-2.5H10v2.5L3.5 6z" transform="translate(4 4)"/></svg>

<svg xmlns="http://www.w3.org/2000/svg" width="24" height="24" version="1.1">
 <defs>
  <style id="current-color-scheme" type="text/css">
   .ColorScheme-Text { color:#323a41; } .ColorScheme-Highlight { color:#4285f4; } .ColorScheme-NeutralText { color:#ff9800; } .ColorScheme-PositiveText { color:#4caf50; } .ColorScheme-NegativeText { color:#f44336; }
  </style>
 </defs>
 <g transform="translate(4,4)">
  <path style="fill:currentColor" class="ColorScheme-Text" d="M 6.5,1.5 0,6 6.5,10.5 V 9.1152 L 2,6 6.5,2.8848 Z M 10,1.5 V 4 H 11 C 14,4 16,6 16,9 16,12.6 12,14 12,14 12,14 13.5,11.8 13.5,10.5 13.5,9.2 12,8 10.5,8 H 10 V 10.5 L 3.5,6 Z"/>
 </g>
</svg>
